; generated by Slic3r 1.3.0-dev on 2020-10-12 at 11:11:33

; external perimeters extrusion width = 0.45mm (2.04mm^3/s)
; perimeters extrusion width = 0.45mm (4.07mm^3/s)
; infill extrusion width = 0.45mm (4.07mm^3/s)
; solid infill extrusion width = 0.45mm (1.53mm^3/s)
; top infill extrusion width = 0.40mm (0.90mm^3/s)

M109 S200 ;Heat nozzle to 200C
M190 S70 ;Heat nozzle to 70C
G28 ;Home all axes
M117 ; Purge extruder
G92 E0 ;Reset extruder
G1 Z2.0 F3000 ;Move Z Axis up
G92 E0 ;Reset extruder
G1 Z1.0 F3000 ;Move z up little to prevent scratching of surface
; Filament gcode

G21 ; set units to millimeters
G90 ; use absolute coordinates
M83 ; use relative distances for extrusion
G1 Z0.000 F7800.000 ; move to next layer (210)
G1 E-5.00000 F2400.00000 ; retract extruder 0
G1 Z0.000 F7800.000 ; Move up before moving
G1 X134.751 Y67.105 F7800.000 ; move to first perimeter point
G1 Z3.555 F7800.000 ; Move down after moving
G1 E5.00000 F2400.00000 ; unretract extruder 0

G1 F4800
G1 X134.751 Y67.105 Z3.555 E0.00000 ; perimeter
G1 X134.751 Y109.488 Z3.555 E2.21428 ; perimeter

G1 F4800
G1 X134.751 Y109.697 Z3.555 E0.00441 ; perimeter
G1 X134.751 Y110.512 Z3.555 E0.01725 ; perimeter

G1 F4800
G1 X134.751 Y116.167 Z3.555 E0.29544 ; perimeter
G1 X129.148 Y116.167 Z0.320 E0.30233 ; perimeter
G1 X128.594 Y116.167 Z0.000 E0.02987 ; perimeter
G1 X85.249 Y116.167 Z25.025 E2.33881 ; perimeter
G1 X85.249 Y116.056 Z25.025 E0.00577 ; perimeter
G1 X85.249 Y110.512 Z25.025 E0.28967 ; perimeter

G1 F4800
G1 X85.249 Y109.488 Z25.025 E0.02166 ; perimeter

G1 F4800
G1 X85.249 Y67.105 Z25.025 E2.21428 ; perimeter
G1 X127.642 Y67.105 Z0.550 E2.28743 ; perimeter
G1 X127.642 Y67.105 Z0.550 E0.00000 ; perimeter
G1 X128.594 Y67.105 Z0.000 E0.05138 ; perimeter
G1 X128.594 Y67.105 Z0.000 E0.00000 ; perimeter
G1 X134.699 Y67.105 Z3.555 E0.32968 ; perimeter

G1 X135.175 Y66.681 Z3.799 F7800.000 ; move to first perimeter point

G1 F4800
G1 X135.175 Y109.207 Z3.799 E2.22175 ; perimeter
G1 X135.175 Y109.488 Z3.799 E0.01470 ; perimeter

G1 F2400
G1 X135.175 Y110.512 Z3.799 E0.02166 ; perimeter

G1 F4800
G1 X135.175 Y116.591 Z3.799 E0.31761 ; perimeter
G1 X128.780 Y116.591 Z0.107 E0.34505 ; perimeter
G1 X128.594 Y116.591 Z0.000 E0.01005 ; perimeter
G1 X84.825 Y116.591 Z25.270 E2.36171 ; perimeter
G1 X84.825 Y116.546 Z25.270 E0.00234 ; perimeter
G1 X84.825 Y116.546 Z25.270 E0.00000 ; perimeter
G1 X84.825 Y110.512 Z25.270 E0.31526 ; perimeter

G1 F2400
G1 X84.825 Y109.488 Z25.270 E0.02166 ; perimeter

G1 F4800
G1 X84.825 Y66.681 Z25.270 E2.23645 ; perimeter
G1 X128.009 Y66.681 Z0.338 E2.33015 ; perimeter
G1 X128.009 Y66.681 Z0.338 E0.00000 ; perimeter
G1 X128.594 Y66.681 Z0.000 E0.03156 ; perimeter
G1 X128.594 Y66.681 Z0.000 E0.00000 ; perimeter
G1 X135.123 Y66.681 Z3.799 E0.35257 ; perimeter

G1 E-5.00000 F2400.00000 ; retract extruder 0
G1 Z0.000 F7800.000 ; Move up before moving
G1 X134.281 Y115.838 F7800.000 ; move to first infill point
G1 Z3.283 F7800.000 ; Move down after moving
G1 E5.00000 F2400.00000 ; unretract extruder 0
G1 F1200
G1 X134.422 Y115.697 Z3.365 E0.00377 ; infill
G1 X134.422 Y115.167 Z3.365 E0.00990 ; infill
G1 X133.751 Y115.838 Z2.977 E0.01793 ; infill
G1 X133.221 Y115.838 Z2.671 E0.01023 ; infill
G1 X134.422 Y114.637 Z3.365 E0.03208 ; infill
G1 X134.422 Y114.107 Z3.365 E0.00990 ; infill
G1 X132.691 Y115.838 Z2.365 E0.04623 ; infill
G1 X132.161 Y115.838 Z2.060 E0.01023 ; infill
G1 X134.422 Y113.577 Z3.365 E0.06038 ; infill
G1 X134.422 Y113.047 Z3.365 E0.00990 ; infill
G1 X131.631 Y115.838 Z1.754 E0.07454 ; infill
G1 X131.102 Y115.838 Z1.448 E0.01023 ; infill
G1 X134.422 Y112.518 Z3.365 E0.08869 ; infill
G1 X134.422 Y111.988 Z3.365 E0.00990 ; infill
G1 X130.572 Y115.838 Z1.142 E0.10284 ; infill
G1 X130.042 Y115.838 Z0.836 E0.01023 ; infill
G1 X134.422 Y111.458 Z3.365 E0.11699 ; infill
G1 X134.422 Y110.928 Z3.365 E0.00990 ; infill
G1 X129.512 Y115.838 Z0.530 E0.13114 ; infill
G1 X129.432 Y115.838 Z0.484 E0.00154 ; infill
G1 X129.432 Y115.838 Z0.484 E0.00000 ; infill
G1 X128.982 Y115.838 Z0.224 E0.00869 ; infill
G1 X132.342 Y112.478 Z2.164 E0.08974 ; infill
G1 X132.342 Y112.478 Z2.164 E0.00000 ; infill
G1 X134.422 Y110.398 Z3.365 E0.05556 ; infill
G1 X134.422 Y110.076 Z3.365 E0.00602 ; infill
G1 X134.422 Y110.076 Z3.365 E0.00000 ; infill
G1 X134.422 Y109.868 Z3.365 E0.00389 ; infill
G1 X128.594 Y115.696 Z0.000 E0.15566 ; infill
G1 X128.452 Y115.838 Z0.082 E0.00379 ; infill
G1 X127.922 Y115.838 Z0.388 E0.01023 ; infill
G1 X128.594 Y115.166 Z0.000 E0.01794 ; infill
G1 X134.422 Y109.338 Z3.365 E0.15566 ; infill
G1 X134.422 Y108.808 Z3.365 E0.00990 ; infill
G1 X128.594 Y114.637 Z0.000 E0.15566 ; infill
G1 X127.393 Y115.838 Z0.694 E0.03209 ; infill
G1 X126.863 Y115.838 Z1.000 E0.01023 ; infill
G1 X128.594 Y114.107 Z0.000 E0.04624 ; infill
G1 X134.422 Y108.279 Z3.365 E0.15566 ; infill
G1 X134.422 Y107.749 Z3.365 E0.00990 ; infill
G1 X128.594 Y113.577 Z0.000 E0.15566 ; infill
G1 X126.333 Y115.838 Z1.306 E0.06040 ; infill
G1 X125.803 Y115.838 Z1.611 E0.01023 ; infill
G1 X128.594 Y113.047 Z0.000 E0.07455 ; infill
G1 X134.422 Y107.219 Z3.365 E0.15566 ; infill
G1 X134.422 Y106.689 Z3.365 E0.00990 ; infill
G1 X128.594 Y112.517 Z0.000 E0.15566 ; infill
G1 X128.594 Y112.517 Z0.000 E0.00000 ; infill
G1 X125.273 Y115.838 Z1.917 E0.08870 ; infill
G1 X124.743 Y115.838 Z2.223 E0.01023 ; infill
G1 X128.594 Y111.987 Z0.000 E0.10285 ; infill
G1 X128.594 Y111.987 Z0.000 E0.00000 ; infill
G1 X134.422 Y106.159 Z3.365 E0.15566 ; infill
G1 X134.422 Y105.629 Z3.365 E0.00990 ; infill
G1 X128.594 Y111.457 Z0.000 E0.15566 ; infill
G1 X124.213 Y115.838 Z2.529 E0.11701 ; infill
G1 X123.683 Y115.838 Z2.835 E0.01023 ; infill
G1 X128.594 Y110.927 Z0.000 E0.13116 ; infill
G1 X134.422 Y105.099 Z3.365 E0.15566 ; infill
G1 X134.422 Y104.570 Z3.365 E0.00990 ; infill
G1 X128.594 Y110.398 Z0.000 E0.15566 ; infill
G1 X123.154 Y115.838 Z3.141 E0.14531 ; infill
G1 X122.624 Y115.838 Z3.447 E0.01023 ; infill
G1 X128.594 Y109.868 Z0.000 E0.15946 ; infill
G1 X134.422 Y104.040 Z3.365 E0.15566 ; infill
G1 X134.422 Y103.510 Z3.365 E0.00990 ; infill
G1 X128.594 Y109.338 Z0.000 E0.15566 ; infill
G1 X122.094 Y115.838 Z3.753 E0.17361 ; infill
G1 X121.564 Y115.838 Z4.059 E0.01023 ; infill
G1 X128.594 Y108.808 Z0.000 E0.18777 ; infill
G1 X134.422 Y102.980 Z3.365 E0.15566 ; infill
G1 X134.422 Y102.450 Z3.365 E0.00990 ; infill
G1 X128.594 Y108.278 Z0.000 E0.15566 ; infill
G1 X121.034 Y115.838 Z4.365 E0.20192 ; infill
G1 X120.504 Y115.838 Z4.671 E0.01023 ; infill
G1 X128.594 Y107.748 Z0.000 E0.21607 ; infill
G1 X134.422 Y101.920 Z3.365 E0.15566 ; infill
G1 X134.422 Y101.390 Z3.365 E0.00990 ; infill
G1 X128.594 Y107.218 Z0.000 E0.15566 ; infill
G1 X128.594 Y107.218 Z0.000 E0.00000 ; infill
G1 X119.974 Y115.838 Z4.977 E0.23022 ; infill
G1 X119.445 Y115.838 Z5.282 E0.01023 ; infill
G1 X128.594 Y106.689 Z0.000 E0.24438 ; infill
G1 X134.422 Y100.860 Z3.365 E0.15566 ; infill
G1 X134.422 Y100.331 Z3.365 E0.00990 ; infill
G1 X128.594 Y106.159 Z0.000 E0.15566 ; infill
G1 X118.915 Y115.838 Z5.588 E0.25853 ; infill
G1 X118.385 Y115.838 Z5.894 E0.01023 ; infill
G1 X128.594 Y105.629 Z0.000 E0.27268 ; infill
G1 X134.422 Y99.801 Z3.365 E0.15566 ; infill
G1 X134.422 Y99.271 Z3.365 E0.00990 ; infill
G1 X128.594 Y105.099 Z0.000 E0.15566 ; infill
G1 X117.855 Y115.838 Z6.200 E0.28683 ; infill
G1 X117.325 Y115.838 Z6.506 E0.01023 ; infill
G1 X128.594 Y104.569 Z0.000 E0.30098 ; infill
G1 X134.422 Y98.741 Z3.365 E0.15566 ; infill
G1 X134.422 Y98.211 Z3.365 E0.00990 ; infill
G1 X128.594 Y104.039 Z0.000 E0.15566 ; infill
G1 X116.795 Y115.838 Z6.812 E0.31514 ; infill
G1 X116.265 Y115.838 Z7.118 E0.01023 ; infill
G1 X128.594 Y103.509 Z0.000 E0.32929 ; infill
G1 X134.422 Y97.681 Z3.365 E0.15566 ; infill
G1 X134.422 Y97.151 Z3.365 E0.00990 ; infill
G1 X128.594 Y102.979 Z0.000 E0.15566 ; infill
G1 X115.735 Y115.838 Z7.424 E0.34344 ; infill
G1 X115.206 Y115.838 Z7.730 E0.01023 ; infill
G1 X128.594 Y102.450 Z0.000 E0.35759 ; infill
G1 X134.422 Y96.622 Z3.365 E0.15566 ; infill
G1 X134.422 Y96.092 Z3.365 E0.00990 ; infill
G1 X128.594 Y101.920 Z0.000 E0.15566 ; infill
G1 X114.676 Y115.838 Z8.036 E0.37175 ; infill
G1 X114.146 Y115.838 Z8.342 E0.01023 ; infill
G1 X128.594 Y101.390 Z0.000 E0.38590 ; infill
G1 X128.594 Y101.390 Z0.000 E0.00000 ; infill
G1 X134.422 Y95.562 Z3.365 E0.15566 ; infill
G1 X134.422 Y95.032 Z3.365 E0.00990 ; infill
G1 X128.594 Y100.860 Z0.000 E0.15566 ; infill
G1 X128.594 Y100.860 Z0.000 E0.00000 ; infill
G1 X113.616 Y115.838 Z8.648 E0.40005 ; infill
G1 X113.086 Y115.838 Z8.954 E0.01023 ; infill
G1 X128.594 Y100.330 Z0.000 E0.41420 ; infill
G1 X128.594 Y100.330 Z0.000 E0.00000 ; infill
G1 X134.422 Y94.502 Z3.365 E0.15566 ; infill
G1 X134.422 Y93.972 Z3.365 E0.00990 ; infill
G1 X128.594 Y99.800 Z0.000 E0.15566 ; infill
G1 X128.594 Y99.800 Z0.000 E0.00000 ; infill
G1 X112.556 Y115.838 Z9.259 E0.42835 ; infill
G1 X112.026 Y115.838 Z9.565 E0.01023 ; infill
G1 X128.594 Y99.270 Z0.000 E0.44251 ; infill
G1 X134.422 Y93.442 Z3.365 E0.15566 ; infill
G1 X134.422 Y92.912 Z3.365 E0.00990 ; infill
G1 X128.594 Y98.741 Z0.000 E0.15566 ; infill
G1 X111.497 Y115.838 Z9.871 E0.45666 ; infill
G1 X110.967 Y115.838 Z10.177 E0.01023 ; infill
G1 X128.594 Y98.211 Z0.000 E0.47081 ; infill
G1 X128.594 Y98.211 Z0.000 E0.00000 ; infill
G1 X134.422 Y92.383 Z3.365 E0.15566 ; infill
G1 X134.422 Y91.853 Z3.365 E0.00990 ; infill
G1 X128.594 Y97.681 Z0.000 E0.15566 ; infill
G1 X128.594 Y97.681 Z0.000 E0.00000 ; infill
G1 X110.437 Y115.838 Z10.483 E0.48496 ; infill
G1 X109.907 Y115.838 Z10.789 E0.01023 ; infill
G1 X128.594 Y97.151 Z0.000 E0.49912 ; infill
G1 X128.594 Y97.151 Z0.000 E0.00000 ; infill
G1 X134.422 Y91.323 Z3.365 E0.15566 ; infill
G1 X134.422 Y90.793 Z3.365 E0.00990 ; infill
G1 X128.594 Y96.621 Z0.000 E0.15566 ; infill
G1 X109.377 Y115.838 Z11.095 E0.51327 ; infill
G1 X108.847 Y115.838 Z11.401 E0.01023 ; infill
G1 X128.594 Y96.091 Z0.000 E0.52742 ; infill
G1 X128.594 Y96.091 Z0.000 E0.00000 ; infill
G1 X134.422 Y90.263 Z3.365 E0.15566 ; infill
G1 X134.422 Y89.733 Z3.365 E0.00990 ; infill
G1 X128.594 Y95.561 Z0.000 E0.15566 ; infill
G1 X108.317 Y115.838 Z11.707 E0.54157 ; infill
G1 X107.788 Y115.838 Z12.013 E0.01023 ; infill
G1 X128.594 Y95.031 Z0.000 E0.55572 ; infill
G1 X134.422 Y89.203 Z3.365 E0.15566 ; infill
G1 X134.422 Y88.674 Z3.365 E0.00990 ; infill
G1 X128.594 Y94.502 Z0.000 E0.15566 ; infill
G1 X128.594 Y94.502 Z0.000 E0.00000 ; infill
G1 X107.258 Y115.838 Z12.319 E0.56988 ; infill
G1 X106.728 Y115.838 Z12.625 E0.01023 ; infill
G1 X128.594 Y93.972 Z0.000 E0.58403 ; infill
G1 X128.594 Y93.972 Z0.000 E0.00000 ; infill
G1 X134.422 Y88.144 Z3.365 E0.15566 ; infill
G1 X134.422 Y87.614 Z3.365 E0.00990 ; infill
G1 X128.594 Y93.442 Z0.000 E0.15566 ; infill
G1 X128.594 Y93.442 Z0.000 E0.00000 ; infill
G1 X106.198 Y115.838 Z12.930 E0.59818 ; infill
G1 X105.668 Y115.838 Z13.236 E0.01023 ; infill
G1 X128.594 Y92.912 Z0.000 E0.61233 ; infill
G1 X128.594 Y92.912 Z0.000 E0.00000 ; infill
G1 X134.422 Y87.084 Z3.365 E0.15566 ; infill
G1 X134.422 Y86.554 Z3.365 E0.00990 ; infill
G1 X128.594 Y92.382 Z0.000 E0.15566 ; infill
G1 X128.594 Y92.382 Z0.000 E0.00000 ; infill
G1 X105.138 Y115.838 Z13.542 E0.62649 ; infill
G1 X104.608 Y115.838 Z13.848 E0.01023 ; infill
G1 X128.594 Y91.852 Z0.000 E0.64064 ; infill
G1 X128.594 Y91.852 Z0.000 E0.00000 ; infill
G1 X134.422 Y86.024 Z3.365 E0.15566 ; infill
G1 X134.422 Y85.494 Z3.365 E0.00990 ; infill
G1 X128.594 Y91.322 Z0.000 E0.15566 ; infill
G1 X104.078 Y115.838 Z14.154 E0.65479 ; infill
G1 X103.549 Y115.838 Z14.460 E0.01023 ; infill
G1 X128.594 Y90.793 Z0.000 E0.66894 ; infill
G1 X134.422 Y84.965 Z3.365 E0.15566 ; infill
G1 X134.422 Y84.435 Z3.365 E0.00990 ; infill
G1 X128.594 Y90.263 Z0.000 E0.15566 ; infill
G1 X128.594 Y90.263 Z0.000 E0.00000 ; infill
G1 X103.019 Y115.838 Z14.766 E0.68309 ; infill
G1 X102.489 Y115.838 Z15.072 E0.01023 ; infill
G1 X128.594 Y89.733 Z0.000 E0.69725 ; infill
G1 X128.594 Y89.733 Z0.000 E0.00000 ; infill
G1 X134.422 Y83.905 Z3.365 E0.15566 ; infill
G1 X134.422 Y83.375 Z3.365 E0.00990 ; infill
G1 X128.594 Y89.203 Z0.000 E0.15566 ; infill
G1 X101.959 Y115.838 Z15.378 E0.71140 ; infill
G1 X101.429 Y115.838 Z15.684 E0.01023 ; infill
G1 X128.594 Y88.673 Z0.000 E0.72555 ; infill
G1 X134.422 Y82.845 Z3.365 E0.15566 ; infill
G1 X134.422 Y82.315 Z3.365 E0.00990 ; infill
G1 X128.594 Y88.143 Z0.000 E0.15566 ; infill
G1 X128.594 Y88.143 Z0.000 E0.00000 ; infill
G1 X100.899 Y115.838 Z15.990 E0.73970 ; infill
G1 X100.369 Y115.838 Z16.296 E0.01023 ; infill
G1 X128.594 Y87.613 Z0.000 E0.75386 ; infill
G1 X134.422 Y81.785 Z3.365 E0.15566 ; infill
G1 X134.422 Y81.255 Z3.365 E0.00990 ; infill
G1 X128.594 Y87.083 Z0.000 E0.15566 ; infill
G1 X128.594 Y87.083 Z0.000 E0.00000 ; infill
G1 X99.840 Y115.838 Z16.601 E0.76801 ; infill
G1 X99.310 Y115.838 Z16.907 E0.01023 ; infill
G1 X128.594 Y86.554 Z0.000 E0.78216 ; infill
G1 X134.422 Y80.726 Z3.365 E0.15566 ; infill
G1 X134.422 Y80.196 Z3.365 E0.00990 ; infill
G1 X128.594 Y86.024 Z0.000 E0.15566 ; infill
G1 X98.780 Y115.838 Z17.213 E0.79631 ; infill
G1 X98.250 Y115.838 Z17.519 E0.01023 ; infill
G1 X128.594 Y85.494 Z0.000 E0.81046 ; infill
G1 X134.422 Y79.666 Z3.365 E0.15566 ; infill
G1 X134.422 Y79.136 Z3.365 E0.00990 ; infill
G1 X128.594 Y84.964 Z0.000 E0.15566 ; infill
G1 X97.720 Y115.838 Z17.825 E0.82462 ; infill
G1 X97.190 Y115.838 Z18.131 E0.01023 ; infill
G1 X128.594 Y84.434 Z0.000 E0.83877 ; infill
G1 X134.422 Y78.606 Z3.365 E0.15566 ; infill
G1 X134.422 Y78.076 Z3.365 E0.00990 ; infill
G1 X128.594 Y83.904 Z0.000 E0.15566 ; infill
G1 X96.660 Y115.838 Z18.437 E0.85292 ; infill
G1 X96.130 Y115.838 Z18.743 E0.01023 ; infill
G1 X128.594 Y83.374 Z0.000 E0.86707 ; infill
G1 X134.422 Y77.546 Z3.365 E0.15566 ; infill
G1 X134.422 Y77.017 Z3.365 E0.00990 ; infill
G1 X128.594 Y82.845 Z0.000 E0.15566 ; infill
G1 X95.601 Y115.838 Z19.049 E0.88123 ; infill
G1 X95.071 Y115.838 Z19.355 E0.01023 ; infill
G1 X128.594 Y82.315 Z0.000 E0.89538 ; infill
G1 X128.594 Y82.315 Z0.000 E0.00000 ; infill
G1 X134.422 Y76.487 Z3.365 E0.15566 ; infill
G1 X134.422 Y75.957 Z3.365 E0.00990 ; infill
G1 X128.594 Y81.785 Z0.000 E0.15566 ; infill
G1 X128.594 Y81.785 Z0.000 E0.00000 ; infill
G1 X94.541 Y115.838 Z19.661 E0.90953 ; infill
G1 X94.011 Y115.838 Z19.967 E0.01023 ; infill
G1 X128.594 Y81.255 Z0.000 E0.92368 ; infill
G1 X128.594 Y81.255 Z0.000 E0.00000 ; infill
G1 X134.422 Y75.427 Z3.365 E0.15566 ; infill
G1 X134.422 Y74.897 Z3.365 E0.00990 ; infill
G1 X128.594 Y80.725 Z0.000 E0.15566 ; infill
G1 X128.594 Y80.725 Z0.000 E0.00000 ; infill
G1 X93.481 Y115.838 Z20.272 E0.93784 ; infill
G1 X92.951 Y115.838 Z20.578 E0.01023 ; infill
G1 X128.594 Y80.195 Z0.000 E0.95199 ; infill
G1 X128.594 Y80.195 Z0.000 E0.00000 ; infill
G1 X134.422 Y74.367 Z3.365 E0.15566 ; infill
G1 X134.422 Y73.837 Z3.365 E0.00990 ; infill
G1 X128.594 Y79.665 Z0.000 E0.15566 ; infill
G1 X128.594 Y79.665 Z0.000 E0.00000 ; infill
G1 X92.421 Y115.838 Z20.884 E0.96614 ; infill
G1 X91.892 Y115.838 Z21.190 E0.01023 ; infill
G1 X128.594 Y79.135 Z0.000 E0.98029 ; infill
G1 X134.422 Y73.307 Z3.365 E0.15566 ; infill
G1 X134.422 Y72.778 Z3.365 E0.00990 ; infill
G1 X128.594 Y78.606 Z0.000 E0.15566 ; infill
G1 X128.594 Y78.606 Z0.000 E0.00000 ; infill
G1 X91.362 Y115.838 Z21.496 E0.99444 ; infill
G1 X90.832 Y115.838 Z21.802 E0.01023 ; infill
G1 X128.594 Y78.076 Z0.000 E1.00860 ; infill
G1 X134.422 Y72.248 Z3.365 E0.15566 ; infill
G1 X134.422 Y71.718 Z3.365 E0.00990 ; infill
G1 X128.594 Y77.546 Z0.000 E0.15566 ; infill
G1 X128.594 Y77.546 Z0.000 E0.00000 ; infill
G1 X90.302 Y115.838 Z22.108 E1.02275 ; infill
G1 X89.772 Y115.838 Z22.414 E0.01023 ; infill
G1 X128.594 Y77.016 Z0.000 E1.03690 ; infill
G1 X128.594 Y77.016 Z0.000 E0.00000 ; infill
G1 X134.422 Y71.188 Z3.365 E0.15566 ; infill
G1 X134.422 Y70.658 Z3.365 E0.00990 ; infill
G1 X128.594 Y76.486 Z0.000 E0.15566 ; infill
G1 X128.594 Y76.486 Z0.000 E0.00000 ; infill
G1 X89.242 Y115.838 Z22.720 E1.05105 ; infill
