; generated by Slic3r 1.3.0-dev on 2020-10-12 at 11:25:05

; external perimeters extrusion width = 0.45mm (2.04mm^3/s)
; perimeters extrusion width = 0.45mm (4.07mm^3/s)
; infill extrusion width = 0.45mm (4.07mm^3/s)
; solid infill extrusion width = 0.45mm (1.53mm^3/s)
; top infill extrusion width = 0.40mm (0.90mm^3/s)

M109 S200 ;Heat nozzle to 200C
M190 S70 ;Heat nozzle to 70C
G28 ;Home all axes
M117 ; Purge extruder
G92 E0 ;Reset extruder
G1 Z2.0 F3000 ;Move Z Axis up
G92 E0 ;Reset extruder
G1 Z1.0 F3000 ;Move z up little to prevent scratching of surface
; Filament gcode

G21 ; set units to millimeters
G90 ; use absolute coordinates
M83 ; use relative distances for extrusion
G1 Z0.000 F7800.000 ; move to next layer (210)
G1 E-5.00000 F2400.00000 ; retract extruder 0
G1 Z0.000 F7800.000 ; Move up before moving
G1 X152.895 Y85.870 F7800.000 ; move to first perimeter point
G1 Z24.765 F7800.000 ; Move down after moving
G1 E5.00000 F2400.00000 ; unretract extruder 0

G1 F4800
G1 X152.895 Y85.870 Z24.765 E0.00000 ; perimeter
G1 X152.895 Y85.870 Z24.765 E0.00000 ; perimeter
G1 X152.895 Y134.751 Z24.765 E2.55379 ; perimeter
G1 X110.562 Y134.751 Z0.325 E2.28418 ; perimeter
G1 X110.512 Y134.751 Z0.295 E0.00272 ; perimeter

G1 F4800
G1 X110.000 Y134.751 Z0.000 E0.01119 ; perimeter
G1 X109.488 Y134.751 Z0.295 E0.01119 ; perimeter

G1 F4800
G1 X67.105 Y134.751 Z24.765 E2.28690 ; perimeter
G1 X67.105 Y134.130 Z24.765 E0.03241 ; perimeter
G1 X67.105 Y134.130 Z24.765 E0.00000 ; perimeter
G1 X67.105 Y85.249 Z24.765 E2.55379 ; perimeter
G1 X109.438 Y85.249 Z0.325 E2.28418 ; perimeter
G1 X109.488 Y85.249 Z0.295 E0.00272 ; perimeter

G1 F4800
G1 X110.000 Y85.249 Z0.000 E0.01119 ; perimeter
G1 X110.512 Y85.249 Z0.295 E0.01119 ; perimeter

G1 F4800
G1 X152.895 Y85.249 Z24.765 E2.28690 ; perimeter
G1 X152.895 Y85.810 Z24.765 E0.02928 ; perimeter

G1 E-5.00000 F2400.00000 ; retract extruder 0
G1 Z0.000 F7800.000 ; Move up before moving
G1 X109.488 Y84.825 F7800.000 ; move to first perimeter point
G1 Z0.295 F7800.000 ; Move down after moving
G1 E5.00000 F2400.00000 ; unretract extruder 0

G1 F4800
G1 X109.488 Y84.825 Z0.295 E0.00000 ; perimeter

G1 F2400
G1 X109.805 Y84.825 Z0.112 E0.00693 ; perimeter
G1 X109.805 Y84.825 Z0.112 E0.00000 ; perimeter
G1 X110.000 Y84.825 Z0.000 E0.00426 ; perimeter
G1 X110.000 Y84.825 Z0.000 E0.00000 ; perimeter
G1 X110.512 Y84.825 Z0.295 E0.01119 ; perimeter

G1 F4800
G1 X153.319 Y84.825 Z25.010 E2.30979 ; perimeter
G1 X153.319 Y85.380 Z25.010 E0.02899 ; perimeter
G1 X153.319 Y85.380 Z25.010 E0.00000 ; perimeter
G1 X153.319 Y135.175 Z25.010 E2.60155 ; perimeter
G1 X110.512 Y135.175 Z0.295 E2.30979 ; perimeter

G1 F2400
G1 X110.195 Y135.175 Z0.112 E0.00693 ; perimeter
G1 X110.195 Y135.175 Z0.112 E0.00000 ; perimeter
G1 X110.000 Y135.175 Z0.000 E0.00426 ; perimeter
G1 X109.488 Y135.175 Z0.295 E0.01119 ; perimeter

G1 F4800
G1 X66.681 Y135.175 Z25.010 E2.30979 ; perimeter
G1 X66.681 Y134.620 Z25.010 E0.02899 ; perimeter
G1 X66.681 Y134.620 Z25.010 E0.00000 ; perimeter
G1 X66.681 Y84.825 Z25.010 E2.60155 ; perimeter
G1 X109.436 Y84.825 Z0.295 E2.30727 ; perimeter

G1 E-5.00000 F2400.00000 ; retract extruder 0
G1 Z0.000 F7800.000 ; Move up before moving
G1 X67.576 Y85.578 F7800.000 ; move to first infill point
G1 Z24.494 F7800.000 ; Move down after moving
G1 E5.00000 F2400.00000 ; unretract extruder 0
G1 F1200
G1 X67.434 Y85.719 Z24.575 E0.00379 ; infill
G1 X67.434 Y86.250 Z24.575 E0.00993 ; infill
G1 X68.106 Y85.578 Z24.187 E0.01797 ; infill
G1 X68.637 Y85.578 Z23.881 E0.01025 ; infill
G1 X67.434 Y86.781 Z24.575 E0.03216 ; infill
G1 X67.434 Y87.311 Z24.575 E0.00993 ; infill
G1 X69.167 Y85.578 Z23.575 E0.04635 ; infill
G1 X69.698 Y85.578 Z23.268 E0.01025 ; infill
G1 X67.434 Y87.842 Z24.575 E0.06054 ; infill
G1 X67.434 Y88.372 Z24.575 E0.00993 ; infill
G1 X70.228 Y85.578 Z22.962 E0.07472 ; infill
G1 X70.759 Y85.578 Z22.656 E0.01025 ; infill
G1 X67.434 Y88.903 Z24.575 E0.08891 ; infill
G1 X67.434 Y89.433 Z24.575 E0.00993 ; infill
G1 X71.289 Y85.578 Z22.350 E0.10310 ; infill
G1 X71.820 Y85.578 Z22.043 E0.01025 ; infill
G1 X67.434 Y89.964 Z24.575 E0.11729 ; infill
G1 X67.434 Y90.494 Z24.575 E0.00993 ; infill
G1 X72.350 Y85.578 Z21.737 E0.13148 ; infill
G1 X72.881 Y85.578 Z21.431 E0.01025 ; infill
G1 X67.434 Y91.025 Z24.575 E0.14566 ; infill
G1 X67.434 Y91.555 Z24.575 E0.00993 ; infill
G1 X73.412 Y85.578 Z21.124 E0.15985 ; infill
G1 X73.942 Y85.578 Z20.818 E0.01025 ; infill
G1 X67.434 Y92.086 Z24.575 E0.17404 ; infill
G1 X67.434 Y92.616 Z24.575 E0.00993 ; infill
G1 X74.473 Y85.578 Z20.512 E0.18823 ; infill
G1 X75.003 Y85.578 Z20.205 E0.01025 ; infill
G1 X67.434 Y93.147 Z24.575 E0.20241 ; infill
G1 X67.434 Y93.677 Z24.575 E0.00993 ; infill
G1 X75.534 Y85.578 Z19.899 E0.21660 ; infill
G1 X76.064 Y85.578 Z19.593 E0.01025 ; infill
G1 X67.434 Y94.208 Z24.575 E0.23079 ; infill
G1 X67.434 Y94.738 Z24.575 E0.00993 ; infill
G1 X76.595 Y85.578 Z19.287 E0.24498 ; infill
G1 X77.125 Y85.578 Z18.980 E0.01025 ; infill
G1 X67.434 Y95.269 Z24.575 E0.25916 ; infill
G1 X67.434 Y95.800 Z24.575 E0.00993 ; infill
G1 X77.656 Y85.578 Z18.674 E0.27335 ; infill
G1 X78.186 Y85.578 Z18.368 E0.01025 ; infill
G1 X67.434 Y96.330 Z24.575 E0.28754 ; infill
G1 X67.434 Y96.861 Z24.575 E0.00993 ; infill
G1 X78.717 Y85.578 Z18.061 E0.30173 ; infill
G1 X79.247 Y85.578 Z17.755 E0.01025 ; infill
G1 X67.434 Y97.391 Z24.575 E0.31591 ; infill
G1 X67.434 Y97.922 Z24.575 E0.00993 ; infill
G1 X79.778 Y85.578 Z17.449 E0.33010 ; infill
G1 X80.308 Y85.578 Z17.142 E0.01025 ; infill
G1 X67.434 Y98.452 Z24.575 E0.34429 ; infill
G1 X67.434 Y98.983 Z24.575 E0.00993 ; infill
G1 X80.839 Y85.578 Z16.836 E0.35848 ; infill
G1 X81.369 Y85.578 Z16.530 E0.01025 ; infill
G1 X67.434 Y99.513 Z24.575 E0.37266 ; infill
G1 X67.434 Y100.044 Z24.575 E0.00993 ; infill
G1 X81.900 Y85.578 Z16.224 E0.38685 ; infill
G1 X82.431 Y85.578 Z15.917 E0.01025 ; infill
G1 X67.434 Y100.574 Z24.575 E0.40104 ; infill
G1 X67.434 Y101.105 Z24.575 E0.00993 ; infill
G1 X82.961 Y85.578 Z15.611 E0.41523 ; infill
G1 X83.492 Y85.578 Z15.305 E0.01025 ; infill
G1 X67.434 Y101.635 Z24.575 E0.42942 ; infill
G1 X67.434 Y102.166 Z24.575 E0.00993 ; infill
G1 X84.022 Y85.578 Z14.998 E0.44360 ; infill
G1 X84.553 Y85.578 Z14.692 E0.01025 ; infill
G1 X67.434 Y102.696 Z24.575 E0.45779 ; infill
G1 X67.434 Y103.227 Z24.575 E0.00993 ; infill
G1 X85.083 Y85.578 Z14.386 E0.47198 ; infill
G1 X85.614 Y85.578 Z14.079 E0.01025 ; infill
G1 X67.434 Y103.757 Z24.575 E0.48617 ; infill
G1 X67.434 Y104.288 Z24.575 E0.00993 ; infill
G1 X86.144 Y85.578 Z13.773 E0.50035 ; infill
G1 X86.675 Y85.578 Z13.467 E0.01025 ; infill
G1 X67.434 Y104.818 Z24.575 E0.51454 ; infill
G1 X67.434 Y105.349 Z24.575 E0.00993 ; infill
G1 X87.205 Y85.578 Z13.161 E0.52873 ; infill
G1 X87.736 Y85.578 Z12.854 E0.01025 ; infill
G1 X67.434 Y105.880 Z24.575 E0.54292 ; infill
G1 X67.434 Y106.410 Z24.575 E0.00993 ; infill
G1 X88.266 Y85.578 Z12.548 E0.55710 ; infill
G1 X88.797 Y85.578 Z12.242 E0.01025 ; infill
G1 X67.434 Y106.941 Z24.575 E0.57129 ; infill
G1 X67.434 Y107.471 Z24.575 E0.00993 ; infill
G1 X89.327 Y85.578 Z11.935 E0.58548 ; infill
G1 X89.858 Y85.578 Z11.629 E0.01025 ; infill
G1 X67.434 Y108.002 Z24.575 E0.59967 ; infill
G1 X67.434 Y108.532 Z24.575 E0.00993 ; infill
G1 X90.388 Y85.578 Z11.323 E0.61385 ; infill
G1 X90.919 Y85.578 Z11.016 E0.01025 ; infill
G1 X67.434 Y109.063 Z24.575 E0.62804 ; infill
G1 X67.434 Y109.593 Z24.575 E0.00993 ; infill
G1 X91.449 Y85.578 Z10.710 E0.64223 ; infill
G1 X91.980 Y85.578 Z10.404 E0.01025 ; infill
G1 X67.434 Y110.124 Z24.575 E0.65642 ; infill
G1 X67.434 Y110.654 Z24.575 E0.00993 ; infill
G1 X92.511 Y85.578 Z10.098 E0.67060 ; infill
G1 X93.041 Y85.578 Z9.791 E0.01025 ; infill
G1 X67.434 Y111.185 Z24.575 E0.68479 ; infill
G1 X67.434 Y111.715 Z24.575 E0.00993 ; infill
G1 X93.572 Y85.578 Z9.485 E0.69898 ; infill
G1 X94.102 Y85.578 Z9.179 E0.01025 ; infill
G1 X67.434 Y112.246 Z24.575 E0.71317 ; infill
G1 X67.434 Y112.776 Z24.575 E0.00993 ; infill
G1 X94.633 Y85.578 Z8.872 E0.72736 ; infill
G1 X95.163 Y85.578 Z8.566 E0.01025 ; infill
G1 X67.434 Y113.307 Z24.575 E0.74154 ; infill
G1 X67.434 Y113.837 Z24.575 E0.00993 ; infill
G1 X95.694 Y85.578 Z8.260 E0.75573 ; infill
G1 X96.224 Y85.578 Z7.953 E0.01025 ; infill
G1 X67.434 Y114.368 Z24.575 E0.76992 ; infill
G1 X67.434 Y114.899 Z24.575 E0.00993 ; infill
G1 X96.755 Y85.578 Z7.647 E0.78411 ; infill
G1 X97.285 Y85.578 Z7.341 E0.01025 ; infill
G1 X67.434 Y115.429 Z24.575 E0.79829 ; infill
G1 X67.434 Y115.960 Z24.575 E0.00993 ; infill
G1 X97.816 Y85.578 Z7.035 E0.81248 ; infill
G1 X98.346 Y85.578 Z6.728 E0.01025 ; infill
G1 X67.434 Y116.490 Z24.575 E0.82667 ; infill
G1 X67.434 Y117.021 Z24.575 E0.00993 ; infill
G1 X98.877 Y85.578 Z6.422 E0.84086 ; infill
G1 X99.407 Y85.578 Z6.116 E0.01025 ; infill
G1 X67.434 Y117.551 Z24.575 E0.85504 ; infill
G1 X67.434 Y118.082 Z24.575 E0.00993 ; infill
G1 X99.938 Y85.578 Z5.809 E0.86923 ; infill
G1 X100.468 Y85.578 Z5.503 E0.01025 ; infill
G1 X67.434 Y118.612 Z24.575 E0.88342 ; infill
G1 X67.434 Y119.143 Z24.575 E0.00993 ; infill
G1 X100.999 Y85.578 Z5.197 E0.89761 ; infill
G1 X101.530 Y85.578 Z4.890 E0.01025 ; infill
G1 X67.434 Y119.673 Z24.575 E0.91179 ; infill
G1 X67.434 Y120.204 Z24.575 E0.00993 ; infill
G1 X102.060 Y85.578 Z4.584 E0.92598 ; infill
G1 X102.591 Y85.578 Z4.278 E0.01025 ; infill
G1 X67.434 Y120.734 Z24.575 E0.94017 ; infill
G1 X67.434 Y121.265 Z24.575 E0.00993 ; infill
G1 X103.121 Y85.578 Z3.972 E0.95436 ; infill
G1 X103.652 Y85.578 Z3.665 E0.01025 ; infill
G1 X67.434 Y121.795 Z24.575 E0.96854 ; infill
G1 X67.434 Y122.326 Z24.575 E0.00993 ; infill
G1 X104.182 Y85.578 Z3.359 E0.98273 ; infill
G1 X104.713 Y85.578 Z3.053 E0.01025 ; infill
G1 X67.434 Y122.856 Z24.575 E0.99692 ; infill
G1 X67.434 Y123.387 Z24.575 E0.00993 ; infill
G1 X105.243 Y85.578 Z2.746 E1.01111 ; infill
G1 X105.774 Y85.578 Z2.440 E0.01025 ; infill
G1 X67.434 Y123.918 Z24.575 E1.02530 ; infill
G1 X67.434 Y124.448 Z24.575 E0.00993 ; infill
G1 X106.304 Y85.578 Z2.134 E1.03948 ; infill
G1 X106.835 Y85.578 Z1.827 E0.01025 ; infill
G1 X67.434 Y124.979 Z24.575 E1.05367 ; infill
G1 X67.434 Y125.509 Z24.575 E0.00993 ; infill
G1 X107.365 Y85.578 Z1.521 E1.06786 ; infill
G1 X107.896 Y85.578 Z1.215 E0.01025 ; infill
G1 X67.434 Y126.040 Z24.575 E1.08205 ; infill
G1 X67.434 Y126.570 Z24.575 E0.00993 ; infill
G1 X108.426 Y85.578 Z0.909 E1.09623 ; infill
G1 X108.957 Y85.578 Z0.602 E0.01025 ; infill
G1 X67.434 Y127.101 Z24.575 E1.11042 ; infill
G1 X67.434 Y127.631 Z24.575 E0.00993 ; infill
G1 X106.992 Y88.073 Z1.737 E1.05787 ; infill
G1 X106.992 Y88.073 Z1.737 E0.00000 ; infill
G1 X109.487 Y85.578 Z0.296 E0.06673 ; infill
G1 X110.000 Y85.578 Z0.000 E0.00991 ; infill
G1 X110.000 Y85.578 Z0.000 E0.00000 ; infill
G1 X110.018 Y85.578 Z0.010 E0.00035 ; infill
G1 X110.000 Y85.596 Z0.000 E0.00048 ; infill
G1 X110.000 Y85.596 Z0.000 E0.00000 ; infill
G1 X103.563 Y92.033 Z3.717 E0.17215 ; infill
G1 X103.563 Y92.033 Z3.717 E0.00000 ; infill
G1 X67.434 Y128.162 Z24.575 E0.96616 ; infill
G1 X67.434 Y128.692 Z24.575 E0.00993 ; infill
G1 X100.133 Y95.993 Z5.697 E0.87445 ; infill
G1 X110.000 Y86.126 Z0.000 E0.26386 ; infill
G1 X110.000 Y86.126 Z0.000 E0.00000 ; infill
G1 X110.549 Y85.578 Z0.317 E0.01467 ; infill
G1 X111.079 Y85.578 Z0.623 E0.01025 ; infill
G1 X110.000 Y86.657 Z0.000 E0.02886 ; infill
G1 X110.000 Y86.657 Z0.000 E0.00000 ; infill
G1 X96.704 Y99.953 Z7.677 E0.35557 ; infill
G1 X96.704 Y99.953 Z7.677 E0.00000 ; infill
G1 X67.434 Y129.223 Z24.575 E0.78274 ; infill
G1 X67.434 Y129.753 Z24.575 E0.00993 ; infill
G1 X93.275 Y103.913 Z9.656 E0.69103 ; infill
G1 X93.275 Y103.913 Z9.656 E0.00000 ; infill
G1 X110.000 Y87.187 Z0.000 E0.44728 ; infill
G1 X111.610 Y85.578 Z0.929 E0.04304 ; infill
G1 X112.140 Y85.578 Z1.236 E0.01025 ; infill
G1 X110.000 Y87.718 Z0.000 E0.05723 ; infill
G1 X110.000 Y87.718 Z0.000 E0.00000 ; infill
G1 X89.845 Y107.873 Z11.636 E0.53899 ; infill
G1 X89.845 Y107.873 Z11.636 E0.00000 ; infill
G1 X67.434 Y130.284 Z24.575 E0.59932 ; infill
G1 X67.434 Y130.814 Z24.575 E0.00993 ; infill
G1 X86.416 Y111.833 Z13.616 E0.50761 ; infill
G1 X110.000 Y88.249 Z0.000 E0.63070 ; infill
G1 X112.671 Y85.578 Z1.542 E0.07142 ; infill
G1 X113.201 Y85.578 Z1.848 E0.01025 ; infill
G1 X110.000 Y88.779 Z0.000 E0.08561 ; infill
G1 X110.000 Y88.779 Z0.000 E0.00000 ; infill
G1 X82.986 Y115.793 Z15.596 E0.72241 ; infill
G1 X67.434 Y131.345 Z24.575 E0.41590 ; infill
G1 X67.434 Y131.875 Z24.575 E0.00993 ; infill
G1 X79.557 Y119.753 Z17.576 E0.32419 ; infill
G1 X79.557 Y119.753 Z17.576 E0.00000 ; infill
G1 X110.000 Y89.310 Z0.000 E0.81412 ; infill
G1 X113.732 Y85.578 Z2.154 E0.09979 ; infill
G1 X114.262 Y85.578 Z2.461 E0.01025 ; infill
G1 X110.000 Y89.840 Z0.000 E0.11398 ; infill
G1 X76.128 Y123.712 Z19.556 E0.90583 ; infill
G1 X67.434 Y132.406 Z24.575 E0.23248 ; infill
G1 X67.434 Y132.936 Z24.575 E0.00993 ; infill
G1 X72.698 Y127.672 Z21.536 E0.14077 ; infill
G1 X110.000 Y90.371 Z0.000 E0.99754 ; infill
G1 X110.000 Y90.371 Z0.000 E0.00000 ; infill
G1 X114.793 Y85.578 Z2.767 E0.12817 ; infill
G1 X115.323 Y85.578 Z3.073 E0.01025 ; infill
G1 X110.000 Y90.901 Z0.000 E0.14236 ; infill
G1 X69.269 Y131.632 Z23.516 E1.08925 ; infill
G1 X69.269 Y131.632 Z23.516 E0.00000 ; infill
G1 X67.434 Y133.467 Z24.575 E0.04906 ; infill
G1 X67.434 Y133.751 Z24.575 E0.00531 ; infill
G1 X67.434 Y133.751 Z24.575 E0.00000 ; infill
G1 X67.434 Y133.998 Z24.575 E0.00462 ; infill
G1 X110.000 Y91.432 Z0.000 E1.13832 ; infill
G1 X110.000 Y91.432 Z0.000 E0.00000 ; infill
G1 X115.854 Y85.578 Z3.380 E0.15654 ; infill
G1 X116.384 Y85.578 Z3.686 E0.01025 ; infill
G1 X110.000 Y91.962 Z0.000 E0.17073 ; infill
G1 X67.540 Y134.422 Z24.514 E1.13548 ; infill
G1 X68.071 Y134.422 Z24.208 E0.01025 ; infill
G1 X110.000 Y92.493 Z0.000 E1.12129 ; infill
G1 X110.000 Y92.493 Z0.000 E0.00000 ; infill
G1 X116.915 Y85.578 Z3.992 E0.18492 ; infill
G1 X117.445 Y85.578 Z4.299 E0.01025 ; infill
G1 X110.000 Y93.023 Z0.000 E0.19911 ; infill
G1 X110.000 Y93.023 Z0.000 E0.00000 ; infill
G1 X68.601 Y134.422 Z23.902 E1.10711 ; infill
G1 X69.132 Y134.422 Z23.595 E0.01025 ; infill
G1 X110.000 Y93.554 Z0.000 E1.09292 ; infill
G1 X117.976 Y85.578 Z4.605 E0.21330 ; infill
G1 X118.506 Y85.578 Z4.911 E0.01025 ; infill
G1 X110.000 Y94.084 Z0.000 E0.22748 ; infill
G1 X69.662 Y134.422 Z23.289 E1.07873 ; infill
G1 X70.193 Y134.422 Z22.983 E0.01025 ; infill
G1 X110.000 Y94.615 Z0.000 E1.06454 ; infill
G1 X119.037 Y85.578 Z5.217 E0.24167 ; infill
G1 X119.567 Y85.578 Z5.524 E0.01025 ; infill
G1 X110.000 Y95.145 Z0.000 E0.25586 ; infill
G1 X70.723 Y134.422 Z22.676 E1.05036 ; infill
G1 X71.254 Y134.422 Z22.370 E0.01025 ; infill
G1 X110.000 Y95.676 Z0.000 E1.03617 ; infill
G1 X110.000 Y95.676 Z0.000 E0.00000 ; infill
G1 X120.098 Y85.578 Z5.830 E0.27005 ; infill
G1 X120.629 Y85.578 Z6.136 E0.01025 ; infill
G1 X110.000 Y96.206 Z0.000 E0.28423 ; infill
G1 X71.784 Y134.422 Z22.064 E1.02198 ; infill
G1 X72.315 Y134.422 Z21.758 E0.01025 ; infill
G1 X110.000 Y96.737 Z0.000 E1.00779 ; infill
G1 X110.000 Y96.737 Z0.000 E0.00000 ; infill
G1 X121.159 Y85.578 Z6.443 E0.29842 ; infill
G1 X121.690 Y85.578 Z6.749 E0.01025 ; infill
G1 X110.000 Y97.267 Z0.000 E0.31261 ; infill
G1 X110.000 Y97.267 Z0.000 E0.00000 ; infill
G1 X72.845 Y134.422 Z21.451 E0.99361 ; infill
G1 X73.376 Y134.422 Z21.145 E0.01025 ; infill
G1 X110.000 Y97.798 Z0.000 E0.97942 ; infill
G1 X110.000 Y97.798 Z0.000 E0.00000 ; infill
G1 X122.220 Y85.578 Z7.055 E0.32680 ; infill
G1 X122.751 Y85.578 Z7.362 E0.01025 ; infill
G1 X110.000 Y98.329 Z0.000 E0.34098 ; infill
G1 X110.000 Y98.329 Z0.000 E0.00000 ; infill
G1 X73.906 Y134.422 Z20.839 E0.96523 ; infill
G1 X74.437 Y134.422 Z20.532 E0.01025 ; infill
G1 X110.000 Y98.859 Z0.000 E0.95104 ; infill
G1 X110.000 Y98.859 Z0.000 E0.00000 ; infill
G1 X123.281 Y85.578 Z7.668 E0.35517 ; infill
G1 X123.812 Y85.578 Z7.974 E0.01025 ; infill
G1 X110.000 Y99.390 Z0.000 E0.36936 ; infill
G1 X110.000 Y99.390 Z0.000 E0.00000 ; infill
